pro/src/icons/stroke-template-offer.svg

<svg width="48" height="48" viewBox="0 0 48 48" fill="none" xmlns="http://www.w3.org/2000/svg">
<path id="icon" fill-rule="evenodd" clip-rule="evenodd" d="M22 6C21.7667 6 21.5447 6.03955 21.3391 6.11149C20.8178 6.2939 20.2474 6.01918 20.0649 5.49789C19.8825 4.97659 20.1572 4.40613 20.6785 4.22372C21.0935 4.07851 21.5387 4 22 4H23.2857C23.838 4 24.2857 4.44772 24.2857 5C24.2857 5.55228 23.838 6 23.2857 6H22ZM25.7143 5C25.7143 4.44772 26.162 4 26.7143 4H29.2857C29.838 4 30.2857 4.44772 30.2857 5C30.2857 5.55228 29.838 6 29.2857 6H26.7143C26.162 6 25.7143 5.55228 25.7143 5ZM31.7143 5C31.7143 4.44772 32.162 4 32.7143 4H35.2857C35.838 4 36.2857 4.44772 36.2857 5C36.2857 5.55228 35.838 6 35.2857 6H32.7143C32.162 6 31.7143 5.55228 31.7143 5ZM37.7143 5C37.7143 4.44772 38.162 4 38.7143 4H40C40.4613 4 40.9065 4.07851 41.3215 4.22372C41.8428 4.40613 42.1175 4.97659 41.9351 5.49789C41.7526 6.01918 41.1822 6.2939 40.6609 6.11149C40.4553 6.03955 40.2333 6 40 6H38.7143C38.162 6 37.7143 5.55228 37.7143 5ZM19.4979 6.06494C20.0192 6.24735 20.2939 6.81781 20.1115 7.3391C20.0395 7.54469 20 7.76666 20 8V9.5C20 10.0523 19.5523 10.5 19 10.5C18.4477 10.5 18 10.0523 18 9.5V8C18 7.53866 18.0785 7.09352 18.2237 6.67854C18.4061 6.15725 18.9766 5.88253 19.4979 6.06494ZM42.5021 6.06494C43.0234 5.88253 43.5939 6.15725 43.7763 6.67854C43.9215 7.09352 44 7.53866 44 8V9.37143C44 9.92371 43.5523 10.3714 43 10.3714C42.4477 10.3714 42 9.92371 42 9.37143V8C42 7.76666 41.9605 7.54469 41.8885 7.3391C41.7061 6.81781 41.9808 6.24735 42.5021 6.06494ZM43 12.0286C43.5523 12.0286 44 12.4763 44 13.0286V15.7714C44 16.3237 43.5523 16.7714 43 16.7714C42.4477 16.7714 42 16.3237 42 15.7714V13.0286C42 12.4763 42.4477 12.0286 43 12.0286ZM19 12.5C19.5523 12.5 20 12.9477 20 13.5V16.5C20 17.0523 19.5523 17.5 19 17.5C18.4477 17.5 18 17.0523 18 16.5V13.5C18 12.9477 18.4477 12.5 19 12.5ZM43 18.4286C43.5523 18.4286 44 18.8763 44 19.4286V22.1714C44 22.7237 43.5523 23.1714 43 23.1714C42.4477 23.1714 42 22.7237 42 22.1714V19.4286C42 18.8763 42.4477 18.4286 43 18.4286ZM19 19.5C19.5523 19.5 20 19.9477 20 20.5V21.1942C26.1354 22.1572 31 26.5984 31 32.2326C31 38.614 24.7594 43.4651 17.5 43.4651C16.6492 43.4651 15.4946 43.3635 14.3415 43.1587C13.1996 42.9558 11.9798 42.638 11.0382 42.1714C10.9938 42.1494 10.9555 42.1412 10.9306 42.1398C10.9166 42.1389 10.9092 42.1402 10.9068 42.1408L7.92881 43.4945C6.3617 44.2068 4.6866 42.7381 5.18788 41.0913L6.05955 38.2277C6.05951 38.2284 6.05943 38.2285 6.05949 38.2281C6.05953 38.2279 6.05962 38.2274 6.0598 38.2268L6.05955 38.2277C6.0596 38.2266 6.05956 38.224 6.0587 38.2196C6.05677 38.2097 6.05108 38.194 6.03814 38.1767C4.75533 36.4654 4 34.4281 4 32.2326C4 29.2424 5.3702 26.5882 7.57338 24.6117C7.43853 24.488 7.33599 24.3259 7.28472 24.1362L6.96736 22.9619C6.82326 22.4288 7.13866 21.8797 7.67181 21.7356C8.20497 21.5915 8.75399 21.9069 8.89808 22.4401L9.15741 23.3996C11.4803 21.8863 14.3971 21 17.5 21C17.6672 21 17.8339 21.0026 18 21.0077V20.5C18 19.9477 18.4477 19.5 19 19.5ZM43 24.8286C43.5523 24.8286 44 25.2763 44 25.8286V28.5714C44 29.1237 43.5523 29.5714 43 29.5714C42.4477 29.5714 42 29.1237 42 28.5714V25.8286C42 25.2763 42.4477 24.8286 43 24.8286ZM43 31.2286C43.5523 31.2286 44 31.6763 44 32.2286V34.9714C44 35.5237 43.5523 35.9714 43 35.9714C42.4477 35.9714 42 35.5237 42 34.9714V32.2286C42 31.6763 42.4477 31.2286 43 31.2286ZM43 37.6286C43.5523 37.6286 44 38.0763 44 38.6286V40C44 40.4613 43.9215 40.9065 43.7763 41.3215C43.5939 41.8428 43.0234 42.1175 42.5021 41.9351C41.9808 41.7527 41.7061 41.1822 41.8885 40.6609C41.9605 40.4553 42 40.2333 42 40V38.6286C42 38.0763 42.4477 37.6286 43 37.6286ZM41.9351 42.5021C42.1175 43.0234 41.8428 43.5939 41.3215 43.7763C40.9065 43.9215 40.4613 44 40 44H38.6607C38.1084 44 37.6607 43.5523 37.6607 43C37.6607 42.4477 38.1084 42 38.6607 42H40C40.2333 42 40.4553 41.9605 40.6609 41.8885C41.1822 41.7061 41.7526 41.9808 41.9351 42.5021ZM26.5 43C26.5 42.4477 26.9477 42 27.5 42H28.8393C29.3916 42 29.8393 42.4477 29.8393 43C29.8393 43.5523 29.3916 44 28.8393 44H27.5C26.9477 44 26.5 43.5523 26.5 43ZM31.4107 43C31.4107 42.4477 31.8584 42 32.4107 42H35.0893C35.6416 42 36.0893 42.4477 36.0893 43C36.0893 43.5523 35.6416 44 35.0893 44H32.4107C31.8584 44 31.4107 43.5523 31.4107 43ZM14.9672 7.24575C15.1077 7.77985 14.7887 8.32677 14.2546 8.46732L12.8447 8.83834C12.3106 8.97889 11.7637 8.65986 11.6231 8.12576C11.4826 7.59166 11.8016 7.04475 12.3357 6.90419L13.7456 6.53317C14.2797 6.39262 14.8266 6.71165 14.9672 7.24575ZM9.79759 8.60616C9.93814 9.14027 9.61911 9.68718 9.08501 9.82773L7.67513 10.1988C7.44842 10.2584 7.24303 10.3537 7.06199 10.4763C6.60473 10.7861 5.98296 10.6665 5.67324 10.2092C5.36352 9.75192 5.48313 9.13016 5.9404 8.82043C6.30589 8.57287 6.718 8.38254 7.16614 8.26461L8.57602 7.89358C9.11012 7.75303 9.65704 8.07206 9.79759 8.60616ZM5.2655 10.9135C5.81627 10.9544 6.22963 11.434 6.18877 11.9848C6.17259 12.2028 6.19222 12.4284 6.25339 12.6547L6.57075 13.829C6.71485 14.3621 6.39945 14.9111 5.8663 15.0552C5.33314 15.1993 4.78412 14.8839 4.64002 14.3508L4.32266 13.1765C4.20176 12.7292 4.16158 12.277 4.19425 11.8368C4.23511 11.286 4.71473 10.8727 5.2655 10.9135ZM6.19078 16.2558C6.72394 16.1117 7.27296 16.4271 7.41705 16.9603L8.05178 19.3088C8.19588 19.8419 7.88048 20.3909 7.34733 20.535C6.81417 20.6791 6.26515 20.3637 6.12105 19.8306L5.48633 17.4821C5.34223 16.9489 5.65763 16.3999 6.19078 16.2558ZM6 32.2326C6 27.3114 10.9523 23 17.5 23C24.0477 23 29 27.3114 29 32.2326C29 37.1537 24.0477 41.4651 17.5 41.4651C16.783 41.4651 15.7464 41.377 14.6913 41.1895C13.6251 41.0001 12.6198 40.7231 11.9261 40.3793C11.4061 40.1217 10.7231 40.0274 10.0802 40.3196L7.1012 41.6737L7.97313 38.8092C8.17243 38.1545 8.0144 37.4786 7.63843 36.9771C6.58925 35.5775 6 33.9544 6 32.2326Z" fill="currentColor"/>
</svg>

<svg xmlns="http://www.w3.org/2000/svg" width="48" height="48" fill="none"><path id="icon" fill="currentColor" fill-rule="evenodd" d="M22 6c-.233 0-.455.04-.66.111a1 1 0 0 1-.662-1.887C21.094 4.079 21.539 4 22 4h1.286a1 1 0 1 1 0 2zm3.714-1a1 1 0 0 1 1-1h2.572a1 1 0 1 1 0 2h-2.572a1 1 0 0 1-1-1m6 0a1 1 0 0 1 1-1h2.572a1 1 0 1 1 0 2h-2.572a1 1 0 0 1-1-1m6 0a1 1 0 0 1 1-1H40c.461 0 .907.079 1.322.224a1 1 0 1 1-.661 1.887A2 2 0 0 0 40 6h-1.286a1 1 0 0 1-1-1M19.498 6.065a1 1 0 0 1 .613 1.274A2 2 0 0 0 20 8v1.5a1 1 0 1 1-2 0V8c0-.461.078-.906.224-1.321a1 1 0 0 1 1.274-.614m23.004 0a1 1 0 0 1 1.274.614c.145.415.224.86.224 1.321v1.371a1 1 0 1 1-2 0V8c0-.233-.04-.455-.111-.66a1 1 0 0 1 .613-1.275M43 12.029a1 1 0 0 1 1 1v2.742a1 1 0 1 1-2 0V13.03a1 1 0 0 1 1-1M19 12.5a1 1 0 0 1 1 1v3a1 1 0 1 1-2 0v-3a1 1 0 0 1 1-1m24 5.929a1 1 0 0 1 1 1v2.742a1 1 0 1 1-2 0V19.43a1 1 0 0 1 1-1M19 19.5a1 1 0 0 1 1 1v.694c6.135.963 11 5.404 11 11.039 0 6.381-6.24 11.232-13.5 11.232-.85 0-2.005-.102-3.158-.306-1.142-.203-2.362-.521-3.304-.988a.3.3 0 0 0-.107-.031h-.024l-2.978 1.355c-1.567.712-3.242-.757-2.741-2.404l.872-2.863v-.001l-.001-.007a.1.1 0 0 0-.02-.043C4.754 36.465 4 34.428 4 32.233c0-2.99 1.37-5.645 3.573-7.621a1 1 0 0 1-.288-.476l-.318-1.174a1 1 0 0 1 1.931-.522l.26.96c2.322-1.514 5.24-2.4 8.342-2.4q.25 0 .5.008V20.5a1 1 0 0 1 1-1m24 5.329a1 1 0 0 1 1 1v2.742a1 1 0 1 1-2 0V25.83a1 1 0 0 1 1-1m0 6.4a1 1 0 0 1 1 1v2.742a1 1 0 1 1-2 0V32.23a1 1 0 0 1 1-1m0 6.4a1 1 0 0 1 1 1V40c0 .461-.078.907-.224 1.322a1 1 0 0 1-1.888-.661q.11-.31.112-.661v-1.371a1 1 0 0 1 1-1m-1.065 4.873a1 1 0 0 1-.614 1.274c-.414.145-.86.224-1.321.224h-1.34a1 1 0 1 1 0-2H40c.233 0 .455-.04.66-.111a1 1 0 0 1 1.275.613M26.5 43a1 1 0 0 1 1-1h1.34a1 1 0 1 1 0 2H27.5a1 1 0 0 1-1-1m4.91 0a1 1 0 0 1 1-1h2.68a1 1 0 1 1 0 2h-2.68a1 1 0 0 1-1-1M14.968 7.246a1 1 0 0 1-.712 1.221l-1.41.371a1 1 0 0 1-.51-1.934l1.41-.37a1 1 0 0 1 1.222.712m-5.17 1.36a1 1 0 0 1-.712 1.222l-1.41.37c-.227.06-.432.156-.613.278A1 1 0 1 1 5.94 8.82a4 4 0 0 1 1.226-.555l1.41-.371a1 1 0 0 1 1.222.712m-4.531 2.308a1 1 0 0 1 .923 1.07q-.026.33.064.67l.318 1.175a1 1 0 0 1-1.931.522l-.317-1.174c-.121-.448-.161-.9-.129-1.34a1 1 0 0 1 1.072-.923m.925 5.342a1 1 0 0 1 1.226.704l.635 2.349a1 1 0 0 1-1.93.522l-.636-2.349a1 1 0 0 1 .705-1.226M6 32.233C6 27.31 10.952 23 17.5 23S29 27.311 29 32.233c0 4.92-4.952 9.232-11.5 9.232-.717 0-1.754-.088-2.809-.276-1.066-.189-2.071-.466-2.765-.81-.52-.257-1.203-.352-1.846-.06l-2.979 1.355.872-2.865c.2-.654.041-1.33-.335-1.832C6.59 35.577 6 33.954 6 32.233" clip-rule="evenodd"/></svg>
